!!!OTL: ALLEMAL KANN MAN NIT LUSTIG SEYN
!!!ARE: Europa, Mitteleuropa, Deutschland, Schwaben
!!!SCT: Z0254
!!!YEM: Copyright 1995, estate of Helmut Schaffrath.
**kern
*ICvox
*Ivox
*M6/8
*k[f#c#g#]
*A:
{8.a
16a
8a
8.cc#
16b
8a
=1
8.ee
16e
8e
4.r}
=2
{8.a
16a
8a
8.cc#
16b
8a
=3
4.ee
4.r}
=4
{8.dd
16ee
8ff#
8ff#
8ee
8dd
=5
8cc#
16cc#
16dd
8ee
8b
16b
16cc#
8dd}
=6
{8a
8a
8a
8g#
8f#
8g#
=7
4a
2r}
=8
{8.dd
16ee
8ff#
8ff#
8ee
8dd
=9
8cc#
16cc#
16dd
8ee
8b
16b
16cc#
8dd}
=10
{8a
8a
8a
8g#
8f#
8g#
=11
4a
2r}
==
!!!AGN: lyrisches Lied, Romanze
!!!ONB: ESAC (Essen Associative Code) Database: ZUCCAL
!!!AMT: compound duple
!!!AIN: vox
!!!EED: Helmut Schaffrath
!!!EEV: 1.0
*-
